X: 6
T: The Trip To Birmingham
R: reel
M: 4/4
L: 1/8
K: Dmaj
DGGF GAB/c/d | e2 ge edBA | G2 GB dGBG | ABAG EG DG | DGGF GAB/c/d | e2 ge efga | bg g2 ageg |1 dBAB G3 E :|2 dBAB GABc ||dggf g2 ga | bgag edBA | G2 GB dGBG | ABAG EG D2 | |1dggf g2 ga | bgag edBA | G2 GB dGBG | AGFA GABc :| |2dg g2 ag g2 | ab ag edBA | G3 B dGBG | AGFA G4 ||


Tune 1787	Setting 27817

